X:1
T:Title
%%score ( 1 2 ) { 3 | 4 }
L:1/8
Q:1/4=105
M:12/8
K:Ab
V:1 treble nm="Drawbar Organ, Soprano"
V:2 treble 
V:3 bass nm="Church Organ, Farewell, My Friends"
V:4 bass 
V:1
 z3 z A2- A3- A/ z/ z z | z3 z c2- c3- c/ z/ z z | c B2 A F2 F [DF]2 F F2 | %3
 z .A2 z E2- E3- E/ z/ z z | z3 z c2- c3- c/ z/ z z | [Ee] [Ed]2 [Ec] D2 D D2 D D2 | %6
 BAG .F3 C C2 .D3 | [=DA] [EG]2 [_DB] A2- A- [DA]2- [DA-][C-A]>C | z3 z e2- e3- e2- e/ z/ | %9
 c c2 .B3 F F2 F [=EA]2 | z3 z A2- A3- A2- A/ z/ | [Ec]cB [=DA] B2- [FB-] [GB-]2 [AB-][G-B]>G | %12
 z3 z A2- A3- A2- A/ z/ | z .A2 z d2- d3- d2- d/ z/ | z3 z e2- e3- e/ z/ z z | z3 z A2- A6- | %16
 A3 z3 z6 | z [A,D]2- [A,D]3- [A,D] [A,C]2- [A,C]3- | [A,C]3 z3 z6 |] %19
V:2
 E C2 .E3 C C2 C [CA]2 | ccB .A3 E =E2 E [Fc]2 | x12 | [=DB]D-[DG] .[DF]3 B, B,2 C [_DE]2 | %4
 E A2 .B3 C E2 E [Ec]2 | z3 z F2- F3- F2- F/ z/ | z3 z E2- E3- E2- E/ z/ | z3 z C2- C z z z3 | %8
 c e2 .f3 A A2 A G2 | z3 z A2- A3- A/ z/ z z | A A2 .F3 F F2 F E2 | z C2 z E2 z6 | %12
 d c2 .B3 E E2 E E2 | EE-[EB] [_Gc] F2 F F2 F F2 | B c2 .f3 A A2 E [Ee]2 | %15
 [EA] [Ec]2 [DB] C2- C D2- D C2- | C [DE]2- [DE]3- [DE] [CE]2- [CE]/ z/ z z | x12 | x12 |] %19
V:3
 z6 E, E,2 E, E,2 | z6 A, G,2 B, A,2 | z6 A, A,2 A, A,2 | A, B,2 A, G,2 G, G,2 A, B,2 | %4
 z6 A, A,2 A, A,2 | A, G,2 A, A,2 A, A,2 A, A,2 | z6 A, A,2 G, A,2 | %7
 B, B,2 E, E,2- E, F,2- F, E,2 | z6[K:treble] C C2 C D2 | z6 C C2 C A,2 | z6 A, D2 D C2 | %11
 A,[K:bass]A,G, F, G,2 A, B,2 C B,2 | z6[K:treble] C C2 C C2 | %13
 B,[K:bass]A,G, A, A,2 A, A,2 A, A,2 | z6 A, A,2 D C2 | A, A,2 E, E,2- E, E,2- E, E,2- | %16
 E, G,2- G,3- G, A,2- A,/ z/ z z | z F,2- F,3- F, E,2- E,3- | E,3 z3 z6 |] %19
V:4
 z6 A,, A,,2 A,, A,,2 | z6 A,, C,2 C, F,2 | z6 D, D,2 C, B,,2 | B,, B,,2 B,, E,2 E, E,2 E, E,2 | %4
 z6 A,, A,,2 A,, A,,2 | C, B,,2 A,, D,2- D,3- D,2- D,/ z/ | z6 A,, A,,2 B,, C,2 | %7
 B,, E,2 z A,,2- A,,3- A,,2- A,,/ z/ | z6 A, A,2 A, E,2 | z6 F, F,2 F, C,2 | z6 D, D,2 D, A,,2 | %11
 A,,C,=E, z _E,2 E, B,,2 B,, E,2 | z6 A,, A,,2 A,, C,2 | D,C,B,, A,, D,2- D,3- D,2- D,/ z/ | %14
 z6 C, C,2 E, A,2 | C, E,2 z A,,2- A,, A,,2- A,, A,,2- | A,, E,2- E,3- E, A,,2- A,,/ z/ z z | %17
 z D,2- D,3- D, A,,2- A,,3- | A,,3 z3 z6 |] %19

